flaticon/hand-gestures/tap-97.svg

<svg xmlns="http://www.w3.org/2000/svg" width="32" height="32" viewBox="0 0 24 24">
    <path d="M0 7.398438L7.199219 7.398438 7.199219.199219 0 .199219zM.800781 1L6.398438 1 6.398438 6.601562 4 6.601562 4 3.558594 4.921875 4.480469C5 4.558594 5.078125 4.601562 5.199219 4.601562 5.320312 4.601562 5.398438 4.558594 5.480469 4.480469 5.640625 4.320312 5.640625 4.078125 5.480469 3.921875L3.949219 2.386719C3.882812 2.269531 3.757812 2.199219 3.601562 2.199219 3.441406 2.199219 3.316406 2.269531 3.25 2.386719L1.71875 3.921875C1.558594 4.078125 1.558594 4.320312 1.71875 4.480469 1.878906 4.640625 2.121094 4.640625 2.28125 4.480469L3.199219 3.558594 3.199219 6.601562.800781 6.601562zM22.199219 8.601562C21.839844 8.601562 21.480469 8.71875 21.199219 8.960938L21.199219 8.601562C21.199219 7.640625 20.441406 6.601562 19.398438 6.601562 19.039062 6.601562 18.679688 6.71875 18.398438 6.960938 18.398438 6.039062 17.601562 5 16.601562 5 16.238281 5 15.878906 5.121094 15.601562 5.359375L15.601562 2.199219C15.601562 1.238281 14.839844.199219 13.800781.199219 12.761719.199219 12 1.238281 12 2.199219L12 10.679688C11.640625 9.921875 11.160156 9.199219 10.679688 8.71875 10.039062 8.078125 8.761719 8.039062 8.039062 8.640625 7.839844 8.839844 7.160156 9.558594 8.078125 10.839844 8.921875 12.039062 9.601562 14.679688 9.601562 16.199219 9.601562 19.398438 11.679688 20.839844 12.398438 21.238281L12.398438 23.398438C12.398438 23.640625 12.558594 23.800781 12.800781 23.800781 13.039062 23.800781 13.199219 23.640625 13.199219 23.398438L13.199219 21C13.199219 20.839844 13.121094 20.71875 12.960938 20.640625 12.839844 20.601562 10.398438 19.441406 10.398438 16.199219 10.398438 14.71875 9.761719 11.800781 8.71875 10.359375 8.441406 10 8.199219 9.519531 8.558594 9.238281 8.960938 8.921875 9.761719 8.921875 10.121094 9.28125 11.121094 10.28125 12 12.398438 12 13.398438 12 13.640625 12.160156 13.800781 12.398438 13.800781 12.640625 13.800781 12.800781 13.640625 12.800781 13.398438L12.800781 2.199219C12.800781 1.640625 13.238281 1 13.800781 1 14.359375 1 14.800781 1.640625 14.800781 2.199219L14.800781 11C14.800781 11.238281 14.960938 11.398438 15.199219 11.398438 15.441406 11.398438 15.601562 11.238281 15.601562 11L15.601562 7C15.601562 6.441406 16.039062 5.800781 16.601562 5.800781 17.160156 5.800781 17.601562 6.441406 17.601562 7L17.601562 11.398438C17.601562 11.640625 17.761719 11.800781 18 11.800781 18.238281 11.800781 18.398438 11.640625 18.398438 11.398438L18.398438 8.601562C18.398438 8.039062 18.839844 7.398438 19.398438 7.398438 19.960938 7.398438 20.398438 8.039062 20.398438 8.601562L20.398438 10.519531C20.398438 10.558594 20.398438 10.558594 20.398438 10.601562L20.398438 12.199219C20.398438 12.441406 20.558594 12.601562 20.800781 12.601562 21.039062 12.601562 21.199219 12.441406 21.199219 12.199219L21.199219 10.519531C21.238281 10 21.679688 9.398438 22.199219 9.398438 22.761719 9.398438 23.199219 10.039062 23.199219 10.601562L23.199219 16.199219C23.199219 19.238281 23.199219 19.238281 22.078125 20.761719 22 20.839844 22 20.960938 22 21.039062L22 23.398438C22 23.640625 22.160156 23.800781 22.398438 23.800781 22.640625 23.800781 22.800781 23.640625 22.800781 23.398438L22.800781 21.121094C24 19.519531 24 19.320312 24 16.199219L24 10.601562C24 9.640625 23.238281 8.601562 22.199219 8.601562zM22.199219 8.601562"/>
    <path d="M18 20.601562C18.238281 20.601562 18.398438 20.441406 18.398438 20.199219 18.398438 19.960938 18.238281 19.800781 18 19.800781L16.800781 19.800781C16.558594 19.800781 16.398438 19.960938 16.398438 20.199219 16.398438 20.441406 16.558594 20.601562 16.800781 20.601562zM18.398438 21.398438L16.398438 21.398438C16.160156 21.398438 16 21.558594 16 21.800781 16 22.039062 16.160156 22.199219 16.398438 22.199219L18.398438 22.199219C18.640625 22.199219 18.800781 22.039062 18.800781 21.800781 18.800781 21.558594 18.640625 21.398438 18.398438 21.398438zM18.398438 21.398438"/>
</svg>

<svg xmlns="http://www.w3.org/2000/svg" width="32" height="32" viewBox="0 0 24 24">
    <path d="M0 7.398h7.2V.2H0zM.8 1h5.598v5.602H4V3.559l.922.921a.36.36 0 0 0 .277.122c.121 0 .2-.043.281-.122a.385.385 0 0 0 0-.558L3.95 2.387a.383.383 0 0 0-.348-.188c-.16 0-.286.07-.352.188L1.719 3.922a.385.385 0 0 0 0 .558c.16.16.402.16.562 0L3.2 3.56v3.043H.801zm0 0M22.2 8.602c-.36 0-.72.117-1 .359V8.6c0-.96-.759-2-1.802-2-.359 0-.718.118-1 .36 0-.922-.796-1.961-1.796-1.961-.364 0-.723.121-1 .36V2.2c0-.962-.762-2-1.801-2C12.76.2 12 1.237 12 2.2v8.48c-.36-.758-.84-1.48-1.32-1.961-.64-.64-1.918-.68-2.64-.078-.2.199-.88.918.038 2.199.844 1.2 1.524 3.84 1.524 5.36 0 3.198 2.078 4.64 2.796 5.038v2.16c0 .243.16.403.403.403.238 0 .398-.16.398-.403V21c0-.16-.078-.281-.238-.36-.121-.038-2.563-1.199-2.563-4.44 0-1.481-.636-4.4-1.68-5.84-.277-.36-.519-.84-.16-1.122.403-.316 1.204-.316 1.563.043 1 1 1.879 3.117 1.879 4.117 0 .243.16.403.398.403.243 0 .403-.16.403-.403V2.2c0-.558.437-1.199 1-1.199.558 0 1 .64 1 1.2V11c0 .238.16.398.398.398.242 0 .403-.16.403-.398V7c0-.559.437-1.2 1-1.2.558 0 1 .641 1 1.2v4.398c0 .243.16.403.398.403.238 0 .398-.16.398-.403V8.602c0-.563.442-1.204 1-1.204.563 0 1 .641 1 1.204v3.597c0 .242.16.403.403.403.238 0 .398-.16.398-.403v-1.68c.04-.519.48-1.12 1-1.12.563 0 1 .64 1 1.203v5.597c0 3.04 0 3.04-1.12 4.563-.079.078-.079.199-.079.277v2.36c0 .242.16.402.398.402.243 0 .403-.16.403-.403v-2.277C24 19.52 24 19.321 24 16.2v-5.597c0-.961-.762-2-1.8-2zm0 0"/>
    <path d="M18 20.602c.238 0 .398-.16.398-.403 0-.238-.16-.398-.398-.398h-1.2c-.241 0-.402.16-.402.398 0 .242.16.403.403.403zm0 0M18.398 21.398h-2c-.238 0-.398.16-.398.403 0 .238.16.398.398.398h2c.243 0 .403-.16.403-.398 0-.242-.16-.403-.403-.403zm0 0"/>
</svg>
